htdocs/bitrix/js/ui/icons/service/images/ui-service-light-vk-order.svg

<svg width="42" height="42" viewBox="-11 -7 42 42" fill="none" xmlns="http://www.w3.org/2000/svg">
<path fill="#80868E" fill-rule="evenodd" clip-rule="evenodd" d="M14.6667 17.0526C14.9416 16.9943 15.1388 17.1947 15.4444 17.4737V17.4737V17.4737V17.4737V17.4737C16.1715 18.1578 16.6359 18.6955 17 19.1579C16.8929 19.158 16.9086 19.1893 17 19.1579C16.9427 19.2616 16.9592 19.3262 17 19.5789C16.9933 19.511 16.9924 19.5941 17 19.5789C16.9528 19.7397 16.8929 19.8062 16.6111 20C16.6884 19.9275 16.5456 19.9588 16.2222 20H14.6667C14.3787 20.0116 14.2424 20.0008 14.2778 20C13.931 19.903 13.8048 19.8492 13.8889 20L13.5 19.5789C13.4169 19.6019 13.2465 19.4454 13.1111 19.1579C12.8568 19.027 12.6909 18.8383 12.7222 18.7368C12.4146 18.5019 12.2662 18.3612 11.9444 18.3158C11.9502 18.1324 11.812 18.0942 11.5556 18.3158C11.6812 18.1382 11.6619 18.147 11.5556 18.3158C11.614 18.1715 11.5725 18.2067 11.5556 18.3158C11.4555 18.323 11.403 18.3954 11.1667 18.3158C11.3099 18.5655 11.2694 18.6926 11.1667 18.7368C11.1957 19.028 11.181 19.2167 11.1667 19.5789C11.1856 19.4982 11.1773 19.5647 11.1667 19.5789C11.1432 19.6869 11.1248 19.7319 11.1667 19.5789V20C10.9893 19.8903 10.8604 19.9441 10.7778 20H10C9.507 19.9773 9.15231 19.9372 8.83333 20C8.42358 19.7378 8.10389 19.6087 7.66667 19.5789C7.55481 19.2929 7.30422 19.1326 6.88889 19.1579C6.85279 18.806 6.68144 18.6662 6.5 18.7368V18.3158C6.33411 18.326 6.26686 18.2536 6.11111 18.3158C6.09642 18.0581 5.92322 17.8371 5.72222 17.4737C5.39809 17.1458 5.14106 16.7782 4.94444 16.2105C4.63527 15.999 4.3377 15.4866 4.16667 14.9474C3.65227 14.2107 3.33535 13.5488 3 12.8421C3.01474 12.7842 3 12.7187 3 12.8421C3 12.6121 3.00737 12.573 3 12.4211V12.4211C3.12437 12.4117 3.26256 12.3657 3.38889 12.4211H5.33333C5.52247 12.3609 5.57774 12.3765 5.72222 12.4211C5.68461 12.4205 5.72331 12.441 5.72222 12.4211V12.4211C5.86242 12.5359 5.92046 12.6141 6.11111 12.8421C6.05681 12.9602 6.16828 13.2115 6.11111 13.2632C6.42071 13.7326 6.52113 13.9311 6.5 14.1053H6.88889C6.85095 14.5705 6.9873 14.8237 7.27778 14.9474C7.24987 15.252 7.36779 15.4192 7.27778 15.3684C7.57692 15.6568 7.67734 15.7506 7.66667 15.7895C7.87173 15.8875 7.95373 15.9217 8.05556 15.7895C8.09007 15.9217 8.15641 15.909 8.05556 15.7895C8.22919 15.8807 8.24116 15.868 8.44444 15.7895C8.27065 15.8288 8.29921 15.7751 8.44444 15.7895C8.38673 15.601 8.41989 15.4866 8.44444 15.3684C8.46319 15.2031 8.48623 15.0066 8.44444 14.9474C8.53505 14.5011 8.53505 14.196 8.44444 13.6842C8.50097 13.6466 8.47886 13.4686 8.44444 13.2632C8.41068 13.1469 8.37659 13.0355 8.44444 12.8421V12.8421C8.1776 12.7187 7.97123 12.6141 7.66667 12.4211C7.61654 12.5613 7.62851 12.5026 7.66667 12.4211C7.79895 12.3032 7.89108 12.2298 8.05556 12C8.25038 12.0499 8.83171 11.9913 9.61111 12C10.1335 12.0059 10.4624 12.0372 10.7778 12C10.8161 12.1203 10.8981 12.1536 10.7778 12C11.029 12.2357 11.0787 12.2944 11.1667 12.4211C11.1469 12.4449 11.1727 12.5232 11.1667 12.4211C11.2058 12.6835 11.2151 12.795 11.1667 12.8421C11.2151 13.0775 11.2123 13.2105 11.1667 13.2632C11.2022 13.4637 11.1966 13.6358 11.1667 13.6842C11.1819 14.068 11.1782 14.2684 11.1667 14.5263C11.1782 14.5079 11.1764 14.6096 11.1667 14.9474C11.1662 14.9117 11.1653 15.0291 11.1667 14.9474C11.1699 15.1943 11.1782 15.2921 11.1667 15.3684C11.2077 15.5218 11.2353 15.6157 11.1667 15.7895C11.3182 15.7672 11.3726 15.8269 11.5556 15.7895C11.4795 15.8807 11.5209 15.8904 11.5556 15.7895C11.6084 15.909 11.6711 15.8826 11.9444 15.7895C11.8369 15.7565 11.9291 15.6724 11.9444 15.3684C12.1336 15.4632 12.2598 15.2999 12.3333 14.9474C12.561 14.857 12.7269 14.595 12.7222 14.1053C13.1977 13.7874 13.4575 13.2408 13.5 12.8421C13.7053 12.6023 13.7292 12.5593 13.8889 12.4211C13.7882 12.487 13.814 12.4616 13.8889 12.4211V12.4211V12.4211C13.9043 12.4068 13.9356 12.399 13.8889 12.4211C14.0627 12.3697 14.1106 12.3687 14.2778 12.4211H16.2222C16.4341 12.3423 16.5889 12.3481 16.6111 12.4211C16.8321 12.4215 16.9077 12.4616 17 12.4211V12.4211C17.0919 12.8888 16.7271 13.6055 15.8333 14.5263C15.7699 14.8795 15.6123 15.0867 15.4444 15.3684C15.0338 15.8318 14.8154 16.1495 14.6667 16.2105C14.6745 16.5005 14.7086 16.698 14.6667 17.0526V17.0526ZM6 5.75C6 3.68976 7.79804 2 10 2C12.202 2 14 3.69075 14 5.75V7H6V5.75ZM18.4314 7.2C18.4663 6.75744 18.2722 6.60538 18.0392 6.8H15.2941V5.6C15.3979 2.48764 12.9613 0 10.1961 0C7.06531 0 4.6287 2.48764 4.70588 5.6V6.8H1.96078C1.75536 6.60633 1.56032 6.80844 1.56863 7.2L0 22.4C0 23.6893 0.621515 24 1.56863 24H18.4314C19.4135 24 19.9995 23.6893 20 22.4C20.0173 22.2075 19.5143 17.1406 18.4314 7.2V7.2Z"/>
</svg>

<svg width="42" height="42" viewBox="-11 -7 42 42" fill="none" xmlns="http://www.w3.org/2000/svg"><path fill="#80868E" fill-rule="evenodd" clip-rule="evenodd" d="M14.667 17.053c.275-.059.472.142.777.42A14.827 14.827 0 0 1 17 19.159c-.107 0-.091.031 0 0-.057.104-.04.168 0 .42-.007-.067-.008.016 0 0-.047.162-.107.228-.389.422.077-.073-.065-.041-.389 0h-1.555c-.288.012-.425 0-.39 0-.346-.097-.472-.15-.388 0l-.389-.421c-.083.023-.254-.134-.389-.421-.254-.131-.42-.32-.389-.421-.307-.235-.456-.376-.778-.421.006-.184-.132-.222-.388 0 .125-.178.106-.169 0 0 .058-.144.017-.11 0 0-.1.007-.153.08-.39 0 .144.25.103.377 0 .42.03.292.015.48 0 .843.02-.08.011-.014 0 0-.023.108-.041.153 0 0V20c-.177-.11-.306-.056-.388 0H10c-.493-.023-.848-.063-1.167 0-.41-.262-.73-.391-1.166-.421-.112-.286-.363-.446-.778-.421-.036-.352-.208-.492-.389-.421v-.421c-.166.01-.233-.062-.389 0-.015-.258-.188-.479-.389-.842a3.16 3.16 0 0 1-.778-1.264c-.309-.211-.606-.723-.777-1.263-.515-.736-.832-1.398-1.167-2.105.015-.058 0-.123 0 0 0-.23.007-.269 0-.42.124-.01.263-.056.389 0h1.944a.497.497 0 0 1 .39 0c-.038-.002 0 .019 0 0 .14.114.197.192.388.42-.054.118.057.37 0 .421.31.47.41.668.389.842h.389c-.038.465.098.719.389.842-.028.305.09.472 0 .421.299.289.4.383.389.421.205.098.287.133.389 0 .034.133.1.12 0 0 .173.092.185.079.388 0-.173.04-.145-.014 0 0-.057-.188-.024-.302 0-.42.02-.166.042-.362 0-.422.091-.446.091-.751 0-1.263.057-.037.035-.215 0-.42-.033-.117-.067-.228 0-.422a6.017 6.017 0 0 1-.777-.42c-.05.14-.038.08 0 0 .132-.119.224-.192.389-.422.194.05.776-.009 1.555 0 .522.006.851.037 1.167 0 .038.12.12.154 0 0 .251.236.3.294.389.421-.02.024.006.102 0 0 .039.263.048.374 0 .421.048.236.045.368 0 .421.035.2.03.373 0 .421.015.384.011.584 0 .842.011-.018.01.084 0 .421 0-.035-.002.082 0 0 .003.247.011.345 0 .421.04.154.068.248 0 .421.151-.022.206.038.389 0-.076.092-.035.101 0 0 .052.12.115.094.388 0-.107-.032-.015-.117 0-.42.19.094.316-.07.39-.422.227-.09.393-.352.388-.842.476-.318.736-.864.778-1.263.205-.24.23-.283.389-.42-.1.065-.075.04 0 0 .015-.015.047-.023 0 0 .174-.052.222-.053.389 0h1.944c.212-.08.367-.074.39 0 .22 0 .296.04.388 0 .092.467-.273 1.183-1.167 2.104-.063.354-.22.56-.389.842-.41.464-.629.781-.777.842.008.29.042.488 0 .843zM6 5.75C6 3.69 7.798 2 10 2s4 1.69 4 3.75V7H6V5.75zM18.431 7.2c.035-.443-.159-.595-.392-.4h-2.745V5.6c.104-3.112-2.333-5.6-5.098-5.6-3.13 0-5.567 2.488-5.49 5.6v1.2H1.96c-.206-.194-.4.008-.392.4L0 22.4C0 23.69.622 24 1.569 24H18.43c.982 0 1.569-.31 1.569-1.6.017-.192-.486-5.26-1.569-15.2z"/></svg>
